X:136
T:Banish Misfortune
C:Joe Buchanan's Scottish Tome - Page 255.2
I:255 2
Z:Carl Allison
R:Jig
L:1/8
M:6/8
K:D
A/G/ | F2 D DED | DEF GFG | A3 cAG | ABc d/c/AG | F2 D DED | DEF GFG | AdB cde | d3 d2 :| 
d/e/ | f2 dd dcd | dfa agf | e2 c/c/ cBc | e/d/ef gfe | f2 dd dcd | dfa agf | g/f/e cde | d3 d2 d/e/ | 
f2 dd dcd | dfa agf | e2 c/c/ cBc | e/d/ef gfe | fga gab | afd ecA | fed cde | d3 d2 |] 
d/e/ | f/e/df e/d/ce | F2 D DED | DEF GFG | A/G/AB cAG | AdB cde | fed cde | d3 d2 :| 

